X: 1889
T: Stan Treacy's Lancers Jig
B: australian traditional tunes wiki
M:6/8
L:1/8
R: Jig
Q: 3/8=100
K:G
V:1 
B|:"G"dBd "C"edc|"G"B2GG2A|"D7"A2A AGA|"G"B2GG2d|
dBd "C"edc|"G"B2GG2B|"C"ABc "D7"DEF|1"G"G3-G2B:|2"G"G3-G2c||
|:dcBd2b|g3-g2B|dcBd2B|"C"c3-c2c|cBA cBA|
"D7"f3-f2e|1"D7"dcB dcA|"G"B3-B2c:|2"D7"ded cBA|"G"G3-G2z||
% abcbook-tune_id 6342d53a4d952afa7b3c79a4


% abcbook-boost 0
% abcbook-tablature 
% abcbook-transpose 
% abcbook-lastupdated 1665324390871
% abcbook-soundfonts 
% abcbook-repeats 1
% NFF Book 2014

